X:1
T:Boston Boy, 1st break "A" and "B"
C:Ricky Skaggs & Kentucky Thunder, "Ancient Tones"
M:4/4
L:1/8
Q:100
K:C
|7[c4E4C4][c4E4C4]|[cEC][cEC][cEC][cEC][c2E2C2]G,B,|7C2CCCDEG| \
FFFFFED^F|G^FGABGGB|cBcBAGEG,|C2[c2E2C2]EGGE|FEFEFED^F|G^FGABcdB| \
[e2c2][ec][ec][ec]G,G,B,|C2CDECCE|FEFEFED^F|G^FGABcdB|cBcBABcB| \
cBcBcBAG|FEFAzAFF|G^FGABcdB|c2[cEC][cEC][c2E2C2][ed]e|:egedcdeg| \
aggag2dc|BGG^FGABc|d2[ecE][ecE][e2c2E2][ed]e|egedcdeg|aggag2dc| \
BGG^FGAGE|D2[cEC][cEC][c4E4C4]:| \
Z:Created with TablEdit http://www.tabledit.com/
